src/objects/book-paper/1F4D9.svg

<?xml version="1.0" encoding="UTF-8"?>
<svg id="emoji" xmlns="http://www.w3.org/2000/svg" viewBox="0 0 72 72">
  <g id="grid">
    <path d="m68,4v64H4V4h64M72,0H0v72h72V0Z" fill="#b3b3b3"/>
    <path d="m12.923,10.9583h46.1539c1.0621,0,1.9231.861,1.9231,1.9231h0v46.1538c0,1.0621-.861,1.9231-1.9231,1.9231H12.9231c-1.0621,0-1.9231-.861-1.9231-1.9231h0V12.8813c0-1.062.861-1.923,1.923-1.923h0Z" fill="none" stroke="#00a5ff" stroke-miterlimit="10" stroke-width=".1"/>
    <rect x="16" y="4" width="40" height="64" rx="2.2537" ry="2.2537" fill="none" stroke="#00a5ff" stroke-miterlimit="10" stroke-width=".1"/>
    <rect x="4" y="16" width="64" height="40" rx="2.2537" ry="2.2537" fill="none" stroke="#00a5ff" stroke-miterlimit="10" stroke-width=".1"/>
    <circle cx="36" cy="36" r="29" fill="none" stroke="#00a5ff" stroke-miterlimit="10" stroke-width=".1"/>
  </g>
  <g id="color">
    <rect x="18" y="12" width="42" height="47.5" fill="#f4aa41"/>
    <path d="m14.6366,12h2.4693c1.0419,0,1.8866.8447,1.8866,1.8866l-1,43.7268c0,1.0419.1553,1.8866-.8866,1.8866h-2.4693c-1.0419,0-1.8866-.8447-1.8866-1.8866V13.8866c0-1.0419.8447-1.8866,1.8866-1.8866Z" fill="#e27022"/>
  </g>
  <g id="line">
    <line x1="18" y1="13" x2="18" y2="59" fill="none" stroke="#000" stroke-linecap="round" stroke-linejoin="round" stroke-width="2"/>
    <path d="m62.9087,54.8149c.6677-.3369,1.0895-1.0203,1.0913-1.7682V9.0833c0-1.1506-.9327-2.0833-2.0833-2.0833H16.4591c-1.5975,0-3.0889.7996-3.9733,2.13h0c-.5776.8688-.3416,2.0413.5271,2.6189.3099.206.6737.316,1.0459.316h3.8086l2.1331-.0177h39.9162v48H14.0583c-1.0289.0008-1.8696-.8213-1.8916-1.85V10.575" fill="none" stroke="#000" stroke-linecap="round" stroke-linejoin="round" stroke-width="2"/>
    <g>
      <polyline points="39.533 27.219 39.533 34.219 42.533 34.219" fill="none" stroke="#000" stroke-linecap="round" stroke-linejoin="round" stroke-width="2"/>
      <path d="m33.7078,34.2187h0c-1.3807,0-2.5-1.1193-2.5-2.5v-2c0-1.3807,1.1193-2.5,2.5-2.5h0c1.3807,0,2.5,1.1193,2.5,2.5v2c0,1.3807-1.1193,2.5-2.5,2.5Z" fill="none" stroke="#000" stroke-linecap="round" stroke-linejoin="round" stroke-width="2"/>
      <g>
        <polyline points="50.164 27.219 49.563 31.099 53.658 31.099" fill="none" stroke="#000" stroke-linecap="round" stroke-linejoin="round" stroke-width="2"/>
        <line x1="52.9834" y1="27.2187" x2="52.9834" y2="34.2187" fill="none" stroke="#000" stroke-linecap="round" stroke-linejoin="round" stroke-width="2"/>
      </g>
      <circle cx="45.5328" cy="34.2187" r="1"/>
      <polyline points="28.416 27.29 26.898 34.29 26.208 34.29 25.537 34.29 24 27.29" fill="none" stroke="#000" stroke-linecap="round" stroke-linejoin="round" stroke-width="2"/>
    </g>
  </g>
</svg>

<svg id="emoji" viewBox="0 0 72 72" xmlns="http://www.w3.org/2000/svg">
  <g id="grid">
    <path fill="#b3b3b3" d="M68,4V68H4V4H68m4-4H0V72H72V0Z"/>
    <path fill="none" stroke="#00a5ff" stroke-miterlimit="10" stroke-width="0.1" d="M12.923,10.9583H59.0769A1.9231,1.9231,0,0,1,61,12.8814V59.0352a1.9231,1.9231,0,0,1-1.9231,1.9231H12.9231A1.9231,1.9231,0,0,1,11,59.0352V12.8813A1.923,1.923,0,0,1,12.923,10.9583Z"/>
    <rect x="16" y="4" rx="2.2537" width="40" height="64" fill="none" stroke="#00a5ff" stroke-miterlimit="10" stroke-width="0.1"/>
    <rect x="16" y="4" rx="2.2537" width="40" height="64" transform="translate(72) rotate(90)" fill="none" stroke="#00a5ff" stroke-miterlimit="10" stroke-width="0.1"/>
    <circle cx="36" cy="36" r="29" fill="none" stroke="#00a5ff" stroke-miterlimit="10" stroke-width="0.1"/>
  </g>
  <g id="color">
    <rect x="18" y="12" width="42" height="47.5" fill="#f4aa41"/>
    <rect x="12" y="12" width="6.9925" height="47.5" fill="#e27022"/>
  </g>
  <g id="line">
    <line x1="18" x2="18" y1="13" y2="59" fill="none" stroke="#000" stroke-linecap="round" stroke-linejoin="round" stroke-width="2"/>
    <path fill="none" stroke="#000" stroke-linecap="round" stroke-linejoin="round" stroke-width="2" d="M62.9087,54.8149A1.986,1.986,0,0,0,64,53.0467V9.0833A2.0833,2.0833,0,0,0,61.9167,7H16.4591a4.7714,4.7714,0,0,0-3.9733,2.13h0a1.889,1.889,0,0,0,1.573,2.9349h3.8086l2.1331-.0177H59.9167v48H14.0583a1.8905,1.8905,0,0,1-1.8916-1.85V10.575"/>
    <g>
      <polyline fill="none" stroke="#000" stroke-linecap="round" stroke-linejoin="round" stroke-width="2" points="39.533 27.219 39.533 34.219 42.533 34.219"/>
      <path fill="none" stroke="#000" stroke-linecap="round" stroke-linejoin="round" stroke-width="2" d="M33.7078,34.2187h0a2.5,2.5,0,0,1-2.5-2.5v-2a2.5,2.5,0,0,1,2.5-2.5h0a2.5,2.5,0,0,1,2.5,2.5v2A2.5,2.5,0,0,1,33.7078,34.2187Z"/>
      <g>
        <polyline fill="none" stroke="#000" stroke-linecap="round" stroke-linejoin="round" stroke-width="2" points="50.164 27.219 49.563 31.099 53.658 31.099"/>
        <line x1="52.9834" x2="52.9834" y1="27.2187" y2="34.2187" fill="none" stroke="#000" stroke-linecap="round" stroke-linejoin="round" stroke-width="2"/>
      </g>
      <circle cx="45.5328" cy="34.2187" r="1"/>
      <polyline fill="none" stroke="#000" stroke-linecap="round" stroke-linejoin="round" stroke-width="2" points="28.416 27.29 26.898 34.29 26.208 34.29 25.537 34.29 24 27.29"/>
    </g>
  </g>
</svg>
